X: 71
T: 6/8 De Rapídes
R: jig
M: 6/8
K: Dmajor
|d2c B2A|F2A DEF|G2G GFG|BAG ABA|
d2c B2A|F2A DEF|G2G ABc|dAF D3:|
A,3 D3|FEF FEF|GFG GFG|BAG ABA|
A,3 D3|FEF FEF|GFG GFG|BGE D3:|

